files/img/flashusage.svg

<svg width="130" height="130" fill="none" xmlns="http://www.w3.org/2000/svg">
  <g clip-path="url(#a)" stroke="#F6B17A">
    <path d="m107.368 78.4932 19.893 19.8933m0-19.8933-19.893 19.8933M91.4532 70.5359c-15.3815 0-27.8507 12.4691-27.8507 27.8506h27.8507m15.9148-55.7013c0 8.7894-7.126 15.9147-15.9148 15.9147-8.7894 0-15.9147-7.1253-15.9147-15.9147 0-8.7895 7.1253-15.9147 15.9147-15.9147 8.7888 0 15.9148 7.1252 15.9148 15.9147Z" stroke-width="5" stroke-linecap="round" stroke-linejoin="round"/>
    <path d="M47.1566 53.2517 17.2531 104.499c-.8297 1.422-2.2093-.221-1.6713-1.99l10.645-35.0075c.3504-1.1519-.1517-2.514-.9266-2.514H2.9081c-.9222 0-1.3872-1.8537-.7394-2.9479l27.7335-46.8307c.8044-1.3587 2.1427.1347 1.6957 1.8922l-7.9536 31.256c-.2926 1.1503.2195 2.4228.9692 2.4072l21.7855-.4507c.9249-.019 1.4024 1.8335.7576 2.9381Z" stroke-width="4"/>
  </g>
  <defs>
    <clipPath id="a">
      <path fill="#fff" d="M0 0h130v130H0z"/>
    </clipPath>
  </defs>
</svg>

<svg width="130" height="130" viewBox="0 0 130 130" fill="none" xmlns="http://www.w3.org/2000/svg">
<g clip-path="url(#clip0_656_494)">
<path d="M107.368 78.4932L127.261 98.3865M127.261 78.4932L107.368 98.3865M91.4532 70.5359C76.0717 70.5359 63.6025 83.005 63.6025 98.3865H91.4532M107.368 42.6852C107.368 51.4746 100.242 58.5999 91.4532 58.5999C82.6638 58.5999 75.5385 51.4746 75.5385 42.6852C75.5385 33.8957 82.6638 26.7705 91.4532 26.7705C100.242 26.7705 107.368 33.8957 107.368 42.6852Z" stroke="#F6B17A" stroke-width="5" stroke-linecap="round" stroke-linejoin="round"/>
<path d="M47.1566 53.2517L17.2531 104.499C16.4234 105.921 15.0438 104.278 15.5818 102.509L26.2268 67.5015C26.5772 66.3496 26.0751 64.9875 25.3002 64.9875H2.9081C1.98586 64.9875 1.52092 63.1338 2.16873 62.0396L29.9022 15.2089C30.7066 13.8502 32.0449 15.3436 31.5979 17.1011L23.6443 48.3571C23.3517 49.5074 23.8638 50.7799 24.6135 50.7643L46.399 50.3136C47.3239 50.2946 47.8014 52.1471 47.1566 53.2517Z" stroke="#F6B17A" stroke-width="4"/>
</g>
<defs>
<clipPath id="clip0_656_494">
<rect width="130" height="130" fill="white"/>
</clipPath>
</defs>
</svg>
